X:1
T:Title
%%score { ( 1 3 ) | 2 }
L:1/8
Q:1/4=94
M:4/8
K:G
V:1 treble nm="Grand Piano"
V:3 treble 
V:2 bass 
V:1
 [B,D][DB] [DB]2 | [B,D][DB] [DB]2 | BAEF | [CA][B,G] [B,D]2 | [CE][EG] [EG]2 | [B,D][DB] [DB]2 | %6
w: W.~H.~Doane * *||||||
 [DA][DA][DB][DA] |[M:5/8] [^CG][CE] D3 |[M:2/4][Q:1/4=88] [DB]2 [Dd]2 | A2 c2 | B2 [DGd]2 | %11
w: |||||
 [DFA]4 | [DGB]2 [=Fd]2 | [EG]2 [Ec]2 | %14
w: |||
 z2 A2[Q:1/4=87][Q:1/4=85][Q:1/4=84][Q:1/4=83][Q:1/4=81][Q:1/4=80][Q:1/4=78][Q:1/4=77][Q:1/4=76][Q:1/4=74][Q:1/4=73][Q:1/4=72][Q:1/4=70][Q:1/4=69][Q:1/4=67] | %15
w: |
 [B,DG]4 |] %16
w: |
V:2
 [G,,G,][G,,G,] [G,,G,]2 | [G,,G,][G,,G,] [G,,G,]2 | [D,F,C][D,F,C][D,A,C][D,A,C] | %3
 [G,,G,][G,,G,] [G,,G,]2 | [C,G,][C,C] [C,G,]2 | [G,,G,][G,,G,] [G,,G,]2 | %6
 [A,,F,][A,,F,][A,,G,][A,,F,] |[M:5/8] [A,,E,][A,,G,] [D,F,]3 |[M:2/4] [G,,G,]2 [B,,G,]2 | %9
 [D,F,D]2 [F,A,D]2 | [G,DG]2 B,,2 | D,4 | G,2 [B,,G,]2 | [C,G,]2 [C,G,]2 | [D,G,D]2 .[D,F,D]2 | %15
 G,,4 |] %16
V:3
 x4 | x4 | x4 | x4 | x4 | x4 | x4 |[M:5/8] x5 |[M:2/4] x4 | x4 | x4 | x4 | x4 | x4 | B2 z C | x4 |] %16

